X:1
T:Patefacte sunt
T:Andrea Gabrieli
T:Source : Liber primus Ecclesiasticarum Cantionum---Venetia---Ang.Gardano---1576. Editor : André Vierendeels (07/09/17).
T:Patefacte sunt
T:©
T:©
T:©
T:©
T:©
C:Andrea Gabrieli
Z:©
%%score [ 1 2 3 4 ]
L:1/8
Q:1/4=120
M:2/2
K:F
V:1 treble nm="Soprano" snm="S"
V:2 treble nm="Alto" snm="A"
V:3 treble-8 nm="Tenor" snm="T"
V:4 bass nm="Bass" snm="B"
V:1
 G6 G2 | F2 D2 G4 | A4 A2 F2 | B4 G2 G2- | G2 G2 B2 B2 | A2 A2 B2 G2- | G2 F2 D4 | z8 | z8 | %9
w: Pa- te-|fa- cte sunt|ia- nu- e|ce- li Chri-|* sti mar- ti-|ri, Chri- ste mar-|* ti- ri,|||
 G6 G2 | F2 D2 G4 | A4 G4 | F2 E2 A3 G | FDFG A4 | A2 A2 A2 B2- | BAGF G4- | G2 ^F2 F4 | z8 | z8 | %19
w: pa- te-|fa- cte sunt|ia- *|nu- e ce- *||li Chri- sti mar-||* ti- ri,|||
 F4 B4- | B2 AG A2 B2- | B2 A2 B4- | B4 z4 | z8 | z4 z2 F2- | F2 G2 A3 A | D2 A4 F2 | E4 z4 | %28
w: Be- a-|* * * to Ste-|* pha- no,|_||qui|_ in nu- me-|ro mar- ti-|rum|
 z4 z2 G2 | A2 B2 c4 | B4 A2 D2 | GF/G/ A4 G2 | A4 G4 |"^#" F4 z2 A2 | B2 A2 F3 G |[M:3/2] A12 | %36
w: in-|ven- tus est|pri- mus, in-|ven- * * * tus|est pri-|mus, et|i- de- o _|_|
 d4 d4 c4 | B8 A4 | G4 B4 c4 | B4 A8 |[M:2/2] G4 z2 A2 | B2 A2 F3 G |[M:3/2] A12 | z12 | z12 | %45
w: tri- um- *|phat in|ce- lis co-|ro- na-|tus, et|i- de- * *|o|||
 z12 | z4 z4 A4 | B8 G4 | F8 z4 | B4 B4 A4 | G4 G4 A4 | B4 G4 G4 |"^#" G6 FE F4 | G12- | G12 |] %55
w: |rt|i- de-|o|tri- um- *|phat in ce-|lis co- ro-|na- * * *|tus.|_|
V:2
 z8 | z8 | D6 D2 | B,2 G,2 C4 | D4 D2 B,2 | F4 D2 D2- | D2 D2 F2 F2 | D4 z4 | z2 D4 D2 | %9
w: ||Pa- te-|fa- cte sunt|ia- nu- e|ce- li Chri-|* sti mar- ti-|ri,|pa- te|
 B,2 G,2 C4 | D4 D2 B,2 | F4 B,4 | z4 F4 | F2 D2 E4 | D3 E F4 | B,6 C2 | D2 D2 D4- | D8 | %18
w: fa- cte sunt|ia- nu- e|ce- li|ia-|nu- e ce-|li _ _|Chri- sti|mar- ti- ri,|_|
 z2 D2 _E4- | E2 DC D2 G2- | G2 FE F4 | _E4 D2 D2- | D2 F2 G3 G | F4 z4 | A,4 C4 | D3 D C2 F2- | %26
w: Be- a-|* * * to Ste-||pha- no qui|_ in nu- me-|ro,|qui in|nu- me- ro mar-|
 F2 D2 C2 A,2 | B,2 C2 D2 G,2- | G,2 F,2 G,4 | z2 D2 E2 F2 | G4 F4 | E2 E2 F2 E2 | C2 D3 C/B,/ C2 | %33
w: * ti- rum in-|ven- tus est pri-|* * mus,|in- ven- tus|est pri-|mus, in- ven- tus|est pri- * * *|
"^-natural" D4 D2 F2- | F2 F2 D4 |[M:3/2] F4 F4 E4 | D2 E2 F2 G2 A4 | D8 F4 |"^b" C4 G4 E4 | %39
w: mus, et i-|* de- o|tri- um- *|phat _ _ _ _|in ce-|lis co- ro-|
"^-natural""^#""^#" G6 FE F4 |[M:2/2] G2 D4 F2- | F2 F2 D4 |[M:3/2] F4 F4 E4 | D8 D4 | G8 F4 | %45
w: na- * * *|tus, et i-|* de- o|tri- um- *|phat in|ce- lis|
"^b" E4 D4 C4 | D4 z4 z4 | D4 _E4 B,4 | D6 E2 F4 | G4 G4 F4 | D8 D4 | D4 _E4 C4 | D4 D8 | D12- | %54
w: co- ro- na-|tus,|et i- de-|o _ _|tri- um- *|phat in|ce- lis co|ro- na-|tus.|
 D12 |] %55
w: _|
V:3
 z8 | z8 | z8 | z8 | G6 G2 | F2 D2 G4 | A4 A2 F2 | B4 G2 A2- | A2 A2 B2 B2 | G4 z4 | z8 | d6 d2 | %12
w: ||||Pa- te-|fa- cte sunt|ia- nu- e|ce- li Chri-|* sti mar- ti-|ri,||pa- te-|
 c2 A2 c4 | d4 d2 c2 | f4 d4 | z2 G4 G2 | B2 A2 A2 A2 | B6 AG | A2 B4 A2 | B4 z2 G2 | d6 d2 | %21
w: fa- cte sunt|ia- nu- e|ce- li|Chri- sti|mar- ti- ri Be-|a- * *|to Ste- pha-|no, Be-|a- to|
 c2 c2 B4 | z2 B4 c2 | d3 d G2 d2- | d2 c2 A4 | B2 B2 F4 | z4 z2 F2 | G2 A2 B4 | A4 G2 B2 | %29
w: Ste- pha- no|qui in|nu- me- ro mar-|* ti- rum,|mar- ti- rum|in-|ven- tus est|pri- mus, in-|
 F2 F2 G4- | G2 G2 A2 B2 | c4 B4 | A4 z4 | z2 A2 B2 A2 | D8 |[M:3/2] d4 d4 c4 | B8 A4 | %37
w: ven- tus est,|_ in- ven- tus|est pri-|mus,|et i- de-|o|tri- um- *|phat in|
 G2 A2 B2 c2 d4 | _e8 c4 | G4 d8 |[M:2/2] G2 G2 B2 A2 | D8 |[M:3/2] d4 d4 c4 | B8 A4 | %44
w: ce- * * * *|lis co-|ro- na-|tus, et i- de-|o|tri- um- *|phat in|
 G2 A2 B2 c2 d4 | G4 G4 A4 | G6 FE F4 | G12 | z12 | d4 d8 | B8 A4 | G4 B4 c4 | B4 A8 | G12- | %54
w: ce- * * * *|lis co- ro-|na- * * *|tus,||tri- um-|phat in|ce- lis co-|ro- na-|tus|
 G12 |] %55
w: _|
V:4
 z8 | z8 | z8 | z8 | z8 | z8 | D,6 D,2 | B,,2 G,,2 C,4 | D,4 D,2 B,,2 |"^b" E,4 C,4 | z2 G,4 G,2 | %11
w: ||||||Pa- te-|fa- cte sunt|ia- nu- e|ce- li|Pa- te-|
 F,2 D,2 G,4 | A,4 A,2 F,2 | B,4 A,4 | z2 D,4 D,2 | _E,4 E,4 | D,8 | z2 G,,2 D,4- | %18
w: fa- cte sunt|ia- nu- e|ce- li|Chri- sti|mar- ti-|ri,|Be- a-|
 D,2 D,2 C,2 C,2 | B,,4 z4 | z8 | z4 z2 B,,2- | B,,2 D,2 _E,3 E, | B,,2 B,4 G,2 | F,8 | z8 | z8 | %27
w: * to Ste- pha-|no||qui|_ in nu- me-|ro mar- ti-|rum|||
 z4 z2 B,,2 | C,2 D,2 _E,4 | D,4 C,4 | z8 | z2 C,2 D,2 E,2 | F,4 _E,4 | D,8 | z2 A,2 B,2 A,2 | %35
w: in-|ven- tus est|pri- mus,||in- ven- tus|est pri-|mus,|et i- de-|
[M:3/2] D,8 z4 | z12 | z12 | z12 | z12 |[M:2/2] z8 | z2 A,2 B,2 A,2 |[M:3/2] D,8 z4 | G,4 G,4 F,4 | %44
w: o||||||et i- de-|o|tri- um- *|
 _E,8 D,4 | C,4 B,,4 C,4 |"^#" B,,4 A,,8 | G,,8 z4 | B,4 B,4 A,4 | G,8 D,4 | G,8 ^F,4 | %51
w: phat in|ce- lis co-|ro- na-|tus,|tri- um- *|phat in|ce- lis|
 G,4 _E,4 E,4 | D,4 C,8 | G,,4 D,8 | G,,12 |] %55
w: co- * *||co- na-|tus.|

